assets/img/auth.svg

<svg width="253" height="254" viewBox="0 0 253 254" fill="none" xmlns="http://www.w3.org/2000/svg">
<path d="M229.978 46.3516H206.998V23.3707H229.978V46.3516ZM229.978 230.198H206.998V207.218H229.978V230.198ZM23.1508 207.218H46.1316V230.198H23.1508V207.218ZM23.1508 23.3707H46.1316V46.3516H23.1508V23.3707ZM229.978 0.389893H206.998H184.017V23.3707V46.3516V69.3324H206.998V184.237H184.017V207.218H69.1125V184.237H46.1316V69.3324H69.1125V46.3516H161.036L184.017 23.3707H161.036H69.1125V0.389893H46.1316H23.1508H0.169922V23.3707V46.3516V69.3324H23.1508V184.237H0.169922V207.218V230.198V253.179H23.1508H46.1316H69.1125V230.198H184.017V253.179H206.998H229.978H252.959V230.198V207.218V184.237H229.978V69.3324H252.959V46.3516V23.3707V0.389893H229.978Z" fill="#282828"/>
<path d="M115.073 94.8037C115.073 87.9095 119.669 83.3133 126.563 83.3133C133.458 83.3133 138.054 87.9095 138.054 94.8037C138.054 101.698 133.458 106.294 126.563 106.294C119.669 106.294 115.073 101.698 115.073 94.8037ZM92.0922 152.256H138.054L161.035 129.275H138.054H126.563C146.097 129.275 161.035 114.337 161.035 94.8037C161.035 75.27 146.097 60.3325 126.563 60.3325C107.03 60.3325 92.0922 75.27 92.0922 94.8037C92.0922 114.337 107.03 129.275 126.563 129.275H92.0922H69.1113V152.256V175.237H92.0922V152.256Z" fill="#282828"/>
<path d="M184.018 129.274H161.037V175.236H184.018V129.274Z" fill="#282828"/>
</svg>

<svg width="253" height="254" fill="none" xmlns="http://www.w3.org/2000/svg"><path d="M229.978 46.352h-22.98V23.37h22.98v22.98Zm0 183.846h-22.98v-22.98h22.98v22.98Zm-206.827-22.98h22.98v22.98h-22.98v-22.98Zm0-183.847h22.98v22.98h-22.98v-22.98ZM229.978.39h-45.961v68.942h22.981v114.905h-22.981v22.981H69.113v-22.981H46.131V69.332h22.98v-22.98h91.924l22.981-22.981H69.112V.39H.17v68.942h22.98v114.905H.17v68.942h68.942v-22.981h114.905v22.981h68.942v-68.942h-22.981V69.332h22.981V.39h-22.981Z" fill="#282828"/><path d="M115.073 94.804c0-6.895 4.596-11.49 11.49-11.49 6.895 0 11.491 4.596 11.491 11.49s-4.596 11.49-11.491 11.49c-6.894 0-11.49-4.596-11.49-11.49Zm-22.98 57.452h45.961l22.981-22.981h-34.472c19.534 0 34.472-14.938 34.472-34.471 0-19.534-14.938-34.471-34.472-34.471-19.533 0-34.47 14.937-34.47 34.47 0 19.534 14.937 34.472 34.47 34.472H69.111v45.962h22.981v-22.981Zm91.925-22.982h-22.981v45.962h22.981v-45.962Z" fill="#282828"/></svg>
